src/img/svg/logo-android.svg

<svg version="1.1" id="Layer_1" xmlns="http://www.w3.org/2000/svg" x="0" y="0" viewBox="0 0 42.1 47" xml:space="preserve"><style>.st0{fill:#a4c639}</style><path class="st0" d="M34.1 14H7.9v19.1c0 1.9 1.5 3.5 3.3 3.6v7.4c0 1.6 1.3 2.9 2.9 2.9 1.6 0 2.9-1.3 2.9-2.9v-7.4h8.1v7.4c0 1.6 1.3 2.9 2.9 2.9 1.6 0 2.9-1.3 2.9-2.9v-7.4c1.9-.1 3.3-1.7 3.3-3.6V14.3c0-.1 0-.2-.1-.3z"/><path id="c-4-9-2-9-2-9" class="st0" d="M2.9 15.7c1.6 0 2.9 1.3 2.9 2.9V31c0 1.6-1.3 2.9-2.9 2.9C1.3 33.9 0 32.6 0 31V18.6c0-1.6 1.3-2.9 2.9-2.9z"/><path id="c-4-1-7-3-8-4" class="st0" d="M39.2 15.7c1.6 0 2.9 1.3 2.9 2.9V31c0 1.6-1.3 2.9-2.9 2.9-1.6 0-2.9-1.3-2.9-2.9V18.6c0-1.6 1.3-2.9 2.9-2.9z"/><path class="st0" d="M8 12h26c0-2.8-1.2-5.3-3.2-7.3L33.2.5c.1-.1 0-.3-.1-.4-.1-.1-.3 0-.4.1l-2.4 4.1C28.2 2.4 24.1.9 20.9.9c-3 0-7.3 1.5-9.4 3.4L9.3.2C9.2 0 9 0 8.9 0c-.2.1-.2.3-.1.5l2.4 4.2C9.3 6.6 8.1 9.2 8 12zm17.3-5.2c0-.8.7-1.5 1.5-1.5s1.5.6 1.5 1.5c0 .8-.7 1.5-1.5 1.5s-1.5-.7-1.5-1.5zm-11.1 0c0-.8.7-1.5 1.5-1.5s1.5.6 1.5 1.5c0 .8-.7 1.5-1.5 1.5s-1.5-.7-1.5-1.5z"/></svg>

<?xml version="1.0" encoding="utf-8"?>
<!-- Generator: Adobe Illustrator 23.1.0, SVG Export Plug-In . SVG Version: 6.00 Build 0)  -->
<svg version="1.1" id="Layer_1" xmlns="http://www.w3.org/2000/svg" xmlns:xlink="http://www.w3.org/1999/xlink" x="0px" y="0px"
	 viewBox="0 0 42.1 47" style="enable-background:new 0 0 42.1 47;" xml:space="preserve">
<style type="text/css">
	.st0{fill:#A4C639;}
</style>
<path class="st0" d="M34.1,14H7.9c0,0.1,0,0.2,0,0.3v18.8c0,1.9,1.5,3.5,3.3,3.6v7.4c0,1.6,1.3,2.9,2.9,2.9c1.6,0,2.9-1.3,2.9-2.9
	v-7.4h8.1v7.4c0,1.6,1.3,2.9,2.9,2.9c1.6,0,2.9-1.3,2.9-2.9v-7.4c1.9-0.1,3.3-1.7,3.3-3.6V14.3C34.2,14.2,34.2,14.1,34.1,14z"/>
<path id="c-4-9-2-9-2-9" class="st0" d="M2.9,15.7L2.9,15.7c1.6,0,2.9,1.3,2.9,2.9v12.4c0,1.6-1.3,2.9-2.9,2.9l0,0
	c-1.6,0-2.9-1.3-2.9-2.9V18.6C0,17,1.3,15.7,2.9,15.7z"/>
<path id="c-4-1-7-3-8-4" class="st0" d="M39.2,15.7L39.2,15.7c1.6,0,2.9,1.3,2.9,2.9v12.4c0,1.6-1.3,2.9-2.9,2.9l0,0
	c-1.6,0-2.9-1.3-2.9-2.9V18.6C36.3,17,37.6,15.7,39.2,15.7z"/>
<path class="st0" d="M8,12h26c0-2.8-1.2-5.3-3.2-7.3l2.4-4.2c0.1-0.1,0-0.3-0.1-0.4c-0.1-0.1-0.3,0-0.4,0.1l-2.4,4.1
	c-2.1-1.9-6.2-3.4-9.4-3.4l0,0c-3,0-7.3,1.5-9.4,3.4L9.3,0.2C9.2,0,9,0,8.9,0C8.7,0.1,8.7,0.3,8.8,0.5l2.4,4.2C9.3,6.6,8.1,9.2,8,12
	z M25.3,6.8c0-0.8,0.7-1.5,1.5-1.5c0.8,0,1.5,0.6,1.5,1.5c0,0,0,0,0,0c0,0.8-0.7,1.5-1.5,1.5C26,8.3,25.3,7.6,25.3,6.8
	C25.3,6.8,25.3,6.8,25.3,6.8z M14.2,6.8c0-0.8,0.7-1.5,1.5-1.5c0.8,0,1.5,0.6,1.5,1.5c0,0,0,0,0,0c0,0.8-0.7,1.5-1.5,1.5
	C14.9,8.3,14.2,7.6,14.2,6.8C14.2,6.8,14.2,6.8,14.2,6.8z"/>
</svg>
